Adwaita++/apps/scalable/audex.svg

<svg enable-background="new" height="128" viewBox="0 0 128 128" width="128" xmlns="http://www.w3.org/2000/svg">
  <path d="m65.000004 13c-28.807999 0-52.000004 23.192-52.000004 52 0 28.808001 23.192005 52 52.000004 52s51.999996-23.191999 51.999996-52c0-28.808-23.191997-52-51.999996-52zm0 29.714286a22.285716 22.285714 0 0 1 22.285713 22.285714 22.285716 22.285714 0 0 1 -22.285713 22.285715 22.285716 22.285714 0 0 1 -22.285715-22.285715 22.285716 22.285714 0 0 1 22.285715-22.285714z" opacity=".2"/>
  <path d="m50.503906 104.84375c-.620625.0238-1.223952.12517-1.765625.35352-.598593.25234-1.136015.61843-1.58789 1.07031-.451875.45187-.817969.9893-1.070313 1.58789s-.390625 1.25867-.390625 1.95117v13.10547c0 .6925.138281 1.35062.390625 1.94922.252344.59859.618438 1.13601 1.070313 1.58789.451875.45187.989297.81797 1.58789 1.07031.598594.25234 1.258672.39258 1.951172.39258h68.974607c.6925 0 1.35258-.14024 1.95117-.39258.5986-.25234 1.13602-.61844 1.58789-1.07031.45188-.45188.81797-.9893 1.07032-1.58789.13249-.31429.13869-.6798.20508-1.02344v-14.95898c-.0664-.34328-.0727-.70945-.20508-1.02344-.25235-.5986-.61844-1.13602-1.07032-1.58789-.45187-.45188-.98929-.81797-1.58789-1.07031-.54167-.22835-1.145-.32975-1.76562-.35352z" fill="#001" opacity=".2"/>
  <path d="m65.000004 35.142858a27.857144 27.857142 0 0 0 -27.857146 27.857142 27.857144 27.857142 0 0 0 27.857146 27.857144 27.857144 27.857142 0 0 0 27.857142-27.857144 27.857144 27.857142 0 0 0 -27.857142-27.857142zm0 16.714285c6.154201 0 11.142854 4.988658 11.142854 11.142857 0 6.1542-4.988653 11.142858-11.142854 11.142858s-11.142859-4.988658-11.142859-11.142858c0-6.154199 4.988658-11.142857 11.142859-11.142857z" fill="#939393"/>
  <path d="m65.000004 11c-28.807999 0-52.000004 23.192-52.000004 52 0 28.808001 23.192005 52 52.000004 52s51.999996-23.191999 51.999996-52c0-28.808-23.191997-52-51.999996-52zm0 29.714286a22.285716 22.285714 0 0 1 22.285713 22.285714 22.285716 22.285714 0 0 1 -22.285713 22.285715 22.285716 22.285714 0 0 1 -22.285715-22.285715 22.285716 22.285714 0 0 1 22.285715-22.285714z" fill="#e4e4e4"/>
  <path d="m50.503906 102.84375c-.620625.02377-1.223952.12517-1.765625.35352-.598593.25234-1.136015.61843-1.58789 1.07031-.451875.45187-.817969.9893-1.070313 1.58789s-.390625 1.25867-.390625 1.95117v13.10547c0 .6925.138281 1.35062.390625 1.94922.252344.59859.618438 1.13601 1.070313 1.58789.451875.45187.989297.81797 1.58789 1.07031.598594.25234 1.258672.39258 1.951172.39258h68.974607c.6925 0 1.35258-.14024 1.95117-.39258.5986-.25234 1.13602-.61844 1.58789-1.07031.45188-.45188.81797-.9893 1.07032-1.58789.13249-.31429.13869-.6798.20508-1.02344v-14.95898c-.06639-.34328-.07272-.70945-.20508-1.02344-.25235-.5986-.61844-1.13602-1.07032-1.58789-.45187-.45188-.98929-.81797-1.58789-1.07031-.54167-.22835-1.145-.32975-1.76562-.35352z" fill="#00008b"/>
  <g fill="#ff0" transform="matrix(.71626449 0 0 .91102788 35.995818 27.041669)">
    <g fill="#ff0">
      <path d="m35.995494 105.15569-1.831489-18.43305h-4.165161l-13.79525 18.43305h4.460563l1.890569-2.48137h8.655264l.354482 2.48137zm-5.080905-6.764691h-5.228607l4.578723-6.055731z"/>
      <path d="m43.446075 86.72264-4.933205 15.12456q-.265862.8862-.206781 1.50654.08862.62035.413562 1.03391.324942.38402.827124.5908.531723.17724 1.122526.17724h10.782154q.561263 0 1.181606-.20678.649884-.20678 1.240687-.62034.620343-.4431 1.092985-1.06345.502183-.62034.768044-1.41792l4.933205-15.12456h-4.194701l-4.608264 14.17927h-8.862044l4.608263-14.17927z"/>
      <path d="m78.129441 86.72264h-15.124557l-1.388387 4.224241h12.672724q.147701 0 .206781.118161.08862.11816.02954.236321l-2.983555 9.186987q-.08862.35448-.472642.35448h-8.478023l2.097351-6.439751h-4.194702l-3.485737 10.752611h14.533753q1.033906 0 2.067811-.79758 1.063445-.79759 1.742869-2.71769l3.98792-12.318247q.11816-.413562.08862-.856665-.02954-.472642-.206781-.856664-.177241-.384022-.472642-.620343-.265861-.265861-.620343-.265861z"/>
      <path d="m76.567041 105.15569 5.99665-18.43305h15.331338l-1.388387 4.253781h-11.166176l-.945285 2.894935h5.87849l-1.388387 4.253781h-5.87849l-.886205 2.776773h11.166177l-1.388387 4.25378z"/>
      <path d="m119.50688 86.72264-9.95503 9.216526 3.95838 9.216524h-5.49446l-2.48138-5.908027-6.380669 5.908027h-5.464928l9.895947-9.216524-3.899297-9.216526h5.464927l2.54045 5.90803 6.3216-5.90803z"/>
    </g>
    <path d="m115.28079 105.15569 1.38839-4.25378h4.1947l-1.38838 4.25378z" fill="#f92e32"/>
  </g>
</svg>

<svg xmlns="http://www.w3.org/2000/svg" xmlns:xlink="http://www.w3.org/1999/xlink" style="enable-background:new" width="128" height="128" version="1.0" viewBox="0 0 128 128">
 <title id="title4162">
  Adwaita Icon Template
 </title>
 <defs>
  <linearGradient id="linearGradient950">
   <stop style="stop-color:#9a9996" id="stop946" offset="0"/>
   <stop style="stop-color:#77767b" id="stop948" offset="1"/>
  </linearGradient>
  <linearGradient id="linearGradient1001" x1="1660.857" x2="1662.99" y1="806.297" y2="812.882" gradientTransform="matrix(1.8293937,-0.81599442,0.81599442,1.8293937,-3645.9624,100.02949)" gradientUnits="userSpaceOnUse" xlink:href="#linearGradient950"/>
 </defs>
 <path d="M 65.000004,13 C 36.192005,13 13,36.192 13,65 13,93.808001 36.192005,117 65.000004,117 93.808003,117 117,93.808001 117,65 117,36.192 93.808003,13 65.000004,13 Z m 0,29.714286 A 22.285716,22.285714 0 0 1 87.285717,65 22.285716,22.285714 0 0 1 65.000004,87.285715 22.285716,22.285714 0 0 1 42.714289,65 22.285716,22.285714 0 0 1 65.000004,42.714286 Z" style="opacity:0.2"/>
 <path d="m 50.503906,104.84375 c -0.620625,0.0238 -1.223952,0.12517 -1.765625,0.35352 -0.598593,0.25234 -1.136015,0.61843 -1.58789,1.07031 -0.451875,0.45187 -0.817969,0.9893 -1.070313,1.58789 -0.252344,0.59859 -0.390625,1.25867 -0.390625,1.95117 v 13.10547 c 0,0.6925 0.138281,1.35062 0.390625,1.94922 0.252344,0.59859 0.618438,1.13601 1.070313,1.58789 0.451875,0.45187 0.989297,0.81797 1.58789,1.07031 0.598594,0.25234 1.258672,0.39258 1.951172,0.39258 h 68.974607 c 0.6925,0 1.35258,-0.14024 1.95117,-0.39258 0.5986,-0.25234 1.13602,-0.61844 1.58789,-1.07031 0.45188,-0.45188 0.81797,-0.9893 1.07032,-1.58789 0.13249,-0.31429 0.13869,-0.6798 0.20508,-1.02344 v -14.95898 c -0.0664,-0.34328 -0.0727,-0.70945 -0.20508,-1.02344 -0.25235,-0.5986 -0.61844,-1.13602 -1.07032,-1.58789 -0.45187,-0.45188 -0.98929,-0.81797 -1.58789,-1.07031 -0.54167,-0.22835 -1.145,-0.32975 -1.76562,-0.35352 z" style="opacity:0.2;fill:#000011"/>
 <path style="fill:#939393" d="M 65.000004,35.142858 A 27.857144,27.857142 0 0 0 37.142858,63 27.857144,27.857142 0 0 0 65.000004,90.857144 27.857144,27.857142 0 0 0 92.857146,63 27.857144,27.857142 0 0 0 65.000004,35.142858 Z m 0,16.714285 c 6.154201,0 11.142854,4.988658 11.142854,11.142857 0,6.1542 -4.988653,11.142858 -11.142854,11.142858 -6.154201,0 -11.142859,-4.988658 -11.142859,-11.142858 0,-6.154199 4.988658,-11.142857 11.142859,-11.142857 z"/>
 <path style="fill:#e4e4e4" d="M 65.000004,11 C 36.192005,11 13,34.192 13,63 13,91.808001 36.192005,115 65.000004,115 93.808003,115 117,91.808001 117,63 117,34.192 93.808003,11 65.000004,11 Z m 0,29.714286 A 22.285716,22.285714 0 0 1 87.285717,63 22.285716,22.285714 0 0 1 65.000004,85.285715 22.285716,22.285714 0 0 1 42.714289,63 22.285716,22.285714 0 0 1 65.000004,40.714286 Z"/>
 <path style="fill:#00008b" d="M 50.503906 102.84375 C 49.883281 102.86752 49.279954 102.96892 48.738281 103.19727 C 48.139688 103.44961 47.602266 103.8157 47.150391 104.26758 C 46.698516 104.71945 46.332422 105.25688 46.080078 105.85547 C 45.827734 106.45406 45.689453 107.11414 45.689453 107.80664 L 45.689453 120.91211 C 45.689453 121.60461 45.827734 122.26273 46.080078 122.86133 C 46.332422 123.45992 46.698516 123.99734 47.150391 124.44922 C 47.602266 124.90109 48.139688 125.26719 48.738281 125.51953 C 49.336875 125.77187 49.996953 125.91211 50.689453 125.91211 L 119.66406 125.91211 C 120.35656 125.91211 121.01664 125.77187 121.61523 125.51953 C 122.21383 125.26719 122.75125 124.90109 123.20312 124.44922 C 123.655 123.99734 124.02109 123.45992 124.27344 122.86133 C 124.40593 122.54704 124.41213 122.18153 124.47852 121.83789 L 124.47852 106.87891 C 124.41213 106.53563 124.4058 106.16946 124.27344 105.85547 C 124.02109 105.25687 123.655 104.71945 123.20312 104.26758 C 122.75125 103.8157 122.21383 103.44961 121.61523 103.19727 C 121.07356 102.96892 120.47023 102.86752 119.84961 102.84375 L 50.503906 102.84375 z"/>
 <g style="font-size:29.54014969px;line-height:1.25;letter-spacing:0px;word-spacing:0px;fill:#ffff00" id="text836" transform="matrix(0.71626449,0,0,0.91102788,35.995818,27.041669)">
  <path style="fill:#ffff00" d="M 35.995494,105.15569 34.164005,86.72264 h -4.165161 l -13.79525,18.43305 h 4.460563 l 1.890569,-2.48137 h 8.655264 l 0.354482,2.48137 z m -5.080905,-6.764691 h -5.228607 l 4.578723,-6.055731 z"/>
  <path style="fill:#ffff00" d="M 43.446075,86.72264 38.51287,101.8472 q -0.265862,0.8862 -0.206781,1.50654 0.08862,0.62035 0.413562,1.03391 0.324942,0.38402 0.827124,0.5908 0.531723,0.17724 1.122526,0.17724 h 10.782154 q 0.561263,0 1.181606,-0.20678 0.649884,-0.20678 1.240687,-0.62034 0.620343,-0.4431 1.092985,-1.06345 0.502183,-0.62034 0.768044,-1.41792 l 4.933205,-15.12456 h -4.194701 l -4.608264,14.17927 h -8.862044 l 4.608263,-14.17927 z"/>
  <path style="fill:#ffff00" d="M 78.129441,86.72264 H 63.004884 l -1.388387,4.224241 h 12.672724 q 0.147701,0 0.206781,0.118161 0.08862,0.11816 0.02954,0.236321 l -2.983555,9.186987 q -0.08862,0.35448 -0.472642,0.35448 h -8.478023 l 2.097351,-6.439751 h -4.194702 l -3.485737,10.752611 h 14.533753 q 1.033906,0 2.067811,-0.79758 1.063445,-0.79759 1.742869,-2.71769 l 3.98792,-12.318247 q 0.11816,-0.413562 0.08862,-0.856665 -0.02954,-0.472642 -0.206781,-0.856664 -0.177241,-0.384022 -0.472642,-0.620343 -0.265861,-0.265861 -0.620343,-0.265861 z"/>
  <path style="fill:#ffff00" d="m 76.567041,105.15569 5.99665,-18.43305 h 15.331338 l -1.388387,4.253781 H 85.340466 l -0.945285,2.894935 h 5.87849 l -1.388387,4.253781 h -5.87849 l -0.886205,2.776773 h 11.166177 l -1.388387,4.25378 z"/>
  <path style="fill:#ffff00" d="m 119.50688,86.72264 -9.95503,9.216526 3.95838,9.216524 h -5.49446 l -2.48138,-5.908027 -6.380669,5.908027 h -5.464928 l 9.895947,-9.216524 -3.899297,-9.216526 h 5.464927 l 2.54045,5.90803 6.3216,-5.90803 z"/>
  <path style="fill:#f92e32" d="m 115.28079,105.15569 1.38839,-4.25378 h 4.1947 l -1.38838,4.25378 z"/>
 </g>
</svg>
